src/Icon/svgs/PlayPrevious.svg

<svg width="24" height="24" viewBox="0 0 24 24" fill="none" xmlns="http://www.w3.org/2000/svg">
<path fill-rule="evenodd" clip-rule="evenodd" d="M12 2C17.5228 2 22 6.47715 22 12C22 17.5228 17.5228 22 12 22C8.35617 22 5.16753 20.0511 3.4196 17.1388L5.12982 16.1012C6.52689 18.4365 9.08086 20 12 20C16.4183 20 20 16.4183 20 12C20 7.58172 16.4183 4 12 4C10.0455 4 8.25462 4.70094 6.86515 5.86515L9 8H3V2L5.44652 4.44652C7.2016 2.92249 9.49307 2 12 2ZM11.9595 16C10.2622 16 9.10541 14.9784 9.05676 13.5838H10.5649C10.6568 14.2324 11.2297 14.6649 11.9703 14.6649C12.8081 14.6649 13.3865 14.1027 13.3865 13.2541C13.3865 12.3946 12.8027 11.8216 11.9757 11.8216C11.3703 11.8216 10.9108 12.0865 10.6405 12.5243H9.18108L9.57027 8H14.473V9.35676H10.8351L10.6622 11.3622H10.7595C11.0892 10.8865 11.6405 10.6 12.4135 10.6C13.8946 10.6 14.9432 11.6865 14.9432 13.2162C14.9432 14.8703 13.7486 16 11.9595 16Z" fill="#1B1C1D"/>
</svg>

<svg xmlns="http://www.w3.org/2000/svg" width="24" height="24" fill="none"><path fill-rule="evenodd" d="M12 2a10 10 0 1 1 0 20c-3.644 0-6.832-1.949-8.58-4.861l1.71-1.038C6.527 18.437 9.081 20 12 20a8 8 0 1 0 0-16 7.97 7.97 0 0 0-5.135 1.865L9 8H3V2l2.447 2.447A9.96 9.96 0 0 1 12 2zm-.04 14c-1.697 0-2.854-1.022-2.903-2.416h1.508c.092.649.665 1.081 1.405 1.081.838 0 1.416-.562 1.416-1.411 0-.859-.584-1.432-1.411-1.432-.605 0-1.065.265-1.335.703H9.181L9.57 8h4.903v1.357h-3.638l-.173 2.005h.097c.33-.476.881-.762 1.654-.762 1.481 0 2.53 1.087 2.53 2.616 0 1.654-1.195 2.784-2.984 2.784z" fill="#1B1C1D"/></svg>
